packages/ui/src/components/Icon/Icon.assets/assistant_placeholder.svg

<svg width="17" height="16" viewBox="0 0 17 16" fill="none" xmlns="http://www.w3.org/2000/svg">
<g opacity="0.6">
<path d="M8.00097 0.578384C12.0932 0.578384 15.4226 3.90777 15.4226 7.99999C15.4226 12.0922 12.0932 15.4216 8.00097 15.4216C3.90875 15.4197 0.57936 12.0922 0.57936 7.99999C0.57936 3.90777 3.90875 0.578384 8.00097 0.578384ZM8.00097 -0.000976562C3.58817 -0.000976562 0 3.58719 0 7.99999C0 12.4109 3.58817 16.001 8.00097 16.001C12.4118 16.001 16.0019 12.4128 16.0019 7.99999C16 3.58719 12.4118 -0.000976562 8.00097 -0.000976562Z" fill="white"/>
<path d="M14.0552 9.85978C14.1267 9.6261 14.0031 9.3847 13.7732 9.30166C13.2692 9.11627 12.3847 9.12978 11.5253 9.1433C10.9614 9.15296 10.3763 9.16068 9.84325 9.12013C6.95611 8.90577 5.73559 7.77794 5.21803 6.87028C4.58845 5.7637 4.75647 4.58953 5.08864 3.9194C5.78773 2.52315 7.08743 1.93992 8.02792 1.69659C8.06462 1.68887 8.05882 1.66956 8.0202 1.66956C6.92134 1.66956 5.86112 1.94379 4.91483 2.46521H4.9129C4.9129 2.46521 4.9129 2.46521 4.91097 2.46521C4.32002 2.83021 3.87391 3.1701 3.58423 3.47716C2.63601 4.48138 2.19377 5.80039 2.37337 7.09623C2.55876 8.44228 3.39497 9.62224 4.72557 10.4198C6.56987 11.5245 8.75792 11.4472 10.3512 11.3912C10.6679 11.3796 10.9576 11.37 11.2202 11.37C11.9289 11.37 12.3615 11.4453 12.5257 11.7833C12.5778 11.8933 12.5933 12.0208 12.5662 12.1695C12.5547 12.2352 12.628 12.2525 12.684 12.1888C13.2847 11.511 13.7926 10.723 14.0552 9.85978Z" fill="white"/>
<path d="M10.5598 13.8072C10.4961 13.475 9.64633 13.4074 8.67107 13.3282C7.95459 13.2703 7.14156 13.2046 6.38839 13.0212C3.9937 12.4399 2.57427 10.8486 1.91766 9.31906C1.85393 9.17229 1.79599 9.19353 1.83075 9.34996C2.26721 11.3623 3.66346 13.0617 5.61977 13.8593L5.69123 13.8883C5.72792 13.9018 5.76268 13.9153 5.79744 13.9288L5.89786 13.9675C5.93456 13.979 5.95001 13.9848 5.96546 13.9906L6.0427 14.0157C6.06974 14.0254 6.09292 14.0331 6.11802 14.0408C6.14313 14.0505 6.16823 14.0563 6.19141 14.064L6.27252 14.0891C6.80939 14.2417 7.37137 14.3209 7.93914 14.3305H8.00674C8.08592 14.3305 8.14964 14.3325 8.21337 14.3344C9.02448 14.3054 9.81627 14.1278 10.5598 13.8072Z" fill="white"/>
<path d="M6.95802 4.13955C6.76103 4.85989 6.93098 5.61113 7.44082 6.25808C8.5474 7.66786 11.1449 8.33605 12.8907 7.66206C13.47 7.43804 13.9161 7.07691 14.1807 6.61728C14.0533 6.04565 13.8466 5.49719 13.5647 4.98156C13.4005 5.16502 13.1726 5.31179 12.8926 5.41414C12.066 5.71348 10.5076 5.50298 9.98614 4.86761C9.76598 4.59918 9.69067 4.28632 9.77371 3.98699C9.87606 3.61427 10.2082 3.29948 10.6872 3.1276C10.917 3.04456 11.4403 2.99628 11.8498 3.00594C11.4944 2.75102 11.0502 2.48838 10.523 2.22187C10.411 2.16587 10.2932 2.13497 10.1735 2.13303C10.131 2.13303 10.0885 2.1311 10.046 2.1311C9.54583 2.1311 9.07848 2.21415 8.65361 2.37637C7.7923 2.70853 7.17238 3.35162 6.95802 4.13955Z" fill="white"/>
</g>
</svg>

<svg width="17" height="16" fill="none" xmlns="http://www.w3.org/2000/svg"><g opacity=".6" fill="#fff"><path d="M8.001.578c4.092 0 7.422 3.33 7.422 7.422S12.093 15.422 8 15.422C3.909 15.42.579 12.092.579 8S3.91.578 8.001.578zm0-.579C3.588-.001 0 3.587 0 8c0 4.41 3.588 8.001 8.001 8.001 4.41 0 8-3.588 8-8.001-.001-4.413-3.59-8.001-8-8.001z"/><path d="M14.055 9.86a.45.45 0 00-.282-.558c-.504-.186-1.388-.172-2.248-.159-.564.01-1.149.018-1.682-.023-2.887-.214-4.107-1.342-4.625-2.25-.63-1.106-.462-2.28-.13-2.95.7-1.397 2-1.98 2.94-2.223.037-.008.03-.027-.008-.027a6.41 6.41 0 00-3.105.795h-.002-.002c-.591.365-1.037.705-1.327 1.012-.948 1.004-1.39 2.323-1.21 3.62.185 1.345 1.021 2.525 2.352 3.323 1.844 1.104 4.032 1.027 5.625.971.317-.011.607-.021.87-.021.708 0 1.14.075 1.305.413a.62.62 0 01.04.386c-.011.066.062.083.118.02.6-.678 1.109-1.466 1.371-2.33zM10.56 13.807c-.064-.332-.914-.4-1.889-.479-.716-.058-1.53-.123-2.283-.307-2.394-.581-3.814-2.172-4.47-3.702-.064-.147-.122-.125-.087.031a6.31 6.31 0 003.789 4.51l.071.028.106.04.1.04c.038.011.053.017.068.023l.078.025.075.025c.025.01.05.015.073.023l.082.025a6.504 6.504 0 001.666.242h.068c.079 0 .143.002.206.003a6.497 6.497 0 002.347-.527z"/><path d="M6.958 4.14c-.197.72-.027 1.471.483 2.118 1.106 1.41 3.704 2.078 5.45 1.404.579-.224 1.025-.585 1.29-1.045a6.228 6.228 0 00-.616-1.635c-.165.183-.392.33-.672.432-.827.3-2.385.089-2.907-.546-.22-.269-.295-.582-.212-.881.102-.373.434-.688.913-.86.23-.082.753-.13 1.163-.121-.356-.255-.8-.518-1.327-.784a.808.808 0 00-.35-.089l-.127-.002c-.5 0-.968.083-1.392.245-.862.333-1.482.976-1.696 1.764z"/></g></svg>
